X:410
T:Sweeney's Buttermilk
M:C|
L:1/8
Q:120
R:Reel (Key of Bm)
K:Bm
"Bm"FB ~B2 fB ~B2 | "A"dcBc AE ~E2 | "Bm"FB ~B2 ABce | "A"afec Ba^ga |
"Bm"~f2 ec f2ec | "A"BABc BAFE | "G"FB ~B2 ABce | "A"afec "Bm"B2BA :|:
"Bm"FBdc BF ~F2 | "A"EAcB AE ~E2 | "Bm"FBdc Bdfb | "A"afec Bcdc |
"Bm"Bcde fB ~B2 | "A"afec ABce | "Bm"~f3a bf ~f2 | "A"afec "Bm"B2BA :|]
